assets/svg/svgoOutput/logout.svg

<svg width="20" height="24" viewBox="0 0 20 24" fill="none" xmlns="http://www.w3.org/2000/svg"><path d="M8.11111 15.6667L4.55556 12.1111M4.55556 12.1111L8.11111 8.55556M4.55556 12.1111L17 12.1111M12.5556 15.6667V16.5556C12.5556 18.0283 11.3616 19.2222 9.88889 19.2222H3.66667C2.19391 19.2222 1 18.0283 1 16.5556V7.66667C1 6.19391 2.19391 5 3.66667 5H9.88889C11.3616 5 12.5556 6.19391 12.5556 7.66667V8.55556" stroke="#FF644F" stroke-width="2" stroke-linecap="round" stroke-linejoin="round"/></svg>

<svg width="20" height="24" fill="none" xmlns="http://www.w3.org/2000/svg"><path d="M8.111 15.667 4.556 12.11m0 0L8.11 8.556M4.556 12.11H17m-4.444 3.556v.889a2.667 2.667 0 0 1-2.667 2.666H3.667A2.667 2.667 0 0 1 1 16.556v-8.89A2.667 2.667 0 0 1 3.667 5h6.222a2.667 2.667 0 0 1 2.667 2.667v.889" stroke="#FF644F" stroke-width="2" stroke-linecap="round" stroke-linejoin="round"/></svg>
